X: 183
T: Mrs WILLS
C: GEORGE JENKINS
R: Strathspey
B: Glen Collection p.18 #3
Z: 2011 John Chambers <jc:trillian.mit.edu>
M: C
L: 1/8
V: 1 middle=B clef=treble
V: 2 middle=d clef=bass
%%score {1 | 2}
K: C
%
V: 1
f |\
(e/f/g) c>g e>cg>e | (f/g/a) Tg>e f>dd>f | (e/f/g) c>g e>cg>e | f>dg>e c/c/c c :|
F |\
(E/F/G) c>G e>Gc>G | F>dE>c d>DD>F | (E/F/G) c>G e>Gc>G | (F/G/A) D>F E>CC>F |
(E/F/G) c>G e>Gc>G | F>cE>c dDDF | E>CF>D G>cf>a | g>ef>d c/c/c c |]
%
V: 2
z |\
[c'2c2][c'2e2] [c'2g2][c'2g2] | [c'2f2][c'2e2] [b2g2][b2g2] |\
[c'2c2][c'2e2] [c'2g2][c'2g2] | [b2g2][b2g2] [c'2g2c2][c'gc] :|
z |\
c2[g2e2] [c'2e2][g2e2] | [g2d2][g2c2] G2[b2g2] |\
[c'2c2][g2e2] [c'2e2][g2e2] | f2g2 c2[g2e2] |
c2[g2e2] [c'2e2][g2e2] | [g2d2][g2c2] G2[g2e2] |\
[g2c2][g2d2] [g2e2][b2d2] | [c'2e2][b2g2] [c'2g2e2c2][c'gec] |]
